public/logos/KN.svg

<?xml version="1.0" encoding="UTF-8"?>
<svg xmlns="http://www.w3.org/2000/svg" xmlns:xlink="http://www.w3.org/1999/xlink" width="176pt" height="34.23pt" viewBox="0 0 176 34.23" version="1.1">
<defs>
<clipPath id="clip1">
  <path d="M 127 0 L 176 0 L 176 34.230469 L 127 34.230469 Z M 127 0 "/>
</clipPath>
<clipPath id="clip2">
  <path d="M 153 17 L 171 17 L 171 34.230469 L 153 34.230469 Z M 153 17 "/>
</clipPath>
</defs>
<g id="surface1">
<g clip-path="url(#clip1)" clip-rule="nonzero">
<path style=" stroke:none;fill-rule:nonzero;fill:rgb(92.936707%,10.914612%,14.358521%);fill-opacity:1;" d="M 127.105469 34.230469 C 127.105469 34.230469 134.089844 33.183594 142.472656 23.402344 C 150.851562 13.625 162.378906 0.00390625 162.378906 0.00390625 L 176 0.00390625 L 165.871094 34.230469 L 127.105469 34.230469 "/>
</g>
<path style=" stroke:none;fill-rule:nonzero;fill:rgb(99.198914%,99.742126%,99.949646%);fill-opacity:1;" d="M 154.527344 27.941406 C 154.34375 28.546875 153.929688 29.355469 153.257812 30.15625 C 151.777344 31.917969 150.015625 31.421875 148.75 28.644531 C 147.675781 26.285156 147.402344 23.769531 147.765625 21.699219 C 147.996094 20.242188 148.523438 19.0625 149.3125 18.121094 C 149.917969 17.394531 150.496094 17.117188 150.738281 17.117188 L 151.246094 19.328125 C 151.007812 19.371094 150.558594 19.617188 150.078125 20.191406 C 149.59375 20.769531 149.265625 21.59375 149.167969 22.53125 C 149.023438 23.8125 149.269531 25.371094 149.9375 26.839844 C 150.699219 28.507812 151.710938 29.039062 152.699219 27.859375 C 153.089844 27.394531 153.421875 26.804688 153.605469 26.25 L 154.527344 27.941406 "/>
<path style=" stroke:none;fill-rule:nonzero;fill:rgb(99.198914%,99.742126%,99.949646%);fill-opacity:1;" d="M 152.746094 14.285156 L 154.890625 21.074219 C 155.015625 21.484375 155.1875 21.925781 155.402344 22.394531 C 155.785156 23.238281 156.359375 23.566406 156.898438 22.921875 C 157.523438 22.179688 157.582031 20.902344 156.890625 18.714844 L 154.742188 11.910156 L 155.9375 10.484375 L 158.054688 17.183594 C 159.179688 20.753906 159.128906 23.175781 157.609375 24.988281 C 156.453125 26.367188 155.246094 26.097656 154.222656 23.851562 C 154.015625 23.398438 153.8125 22.84375 153.636719 22.285156 L 151.550781 15.710938 L 152.746094 14.285156 "/>
<path style=" stroke:none;fill-rule:nonzero;fill:rgb(99.198914%,99.742126%,99.949646%);fill-opacity:1;" d="M 161.695312 12.988281 L 160.554688 10.851562 C 160.269531 10.304688 159.851562 9.5 159.535156 8.890625 L 159.519531 8.910156 C 159.667969 9.71875 159.878906 10.71875 160.007812 11.503906 L 160.484375 14.433594 Z M 160.914062 16.566406 L 161.496094 20.089844 L 160.226562 21.605469 L 158.15625 7.835938 L 159.691406 6.003906 L 165.140625 15.742188 L 163.886719 17.238281 L 162.527344 14.644531 L 160.914062 16.566406 "/>
<g clip-path="url(#clip2)" clip-rule="nonzero">
<path style=" stroke:none;fill-rule:nonzero;fill:rgb(99.198914%,99.742126%,99.949646%);fill-opacity:1;" d="M 153.097656 34.230469 C 153.097656 34.230469 157.113281 33.089844 162.429688 25.671875 C 165.605469 21.242188 170.9375 17.117188 170.9375 17.117188 L 170.175781 19.683594 C 170.175781 19.683594 166.886719 20.945312 163.050781 25.929688 C 159.214844 30.910156 158.15625 34.230469 158.15625 34.230469 "/>
</g>
<path style=" stroke:none;fill-rule:nonzero;fill:rgb(92.936707%,10.914612%,14.358521%);fill-opacity:1;" d="M 6.542969 17.875 C 6.035156 18.101562 5.171875 18.296875 4.054688 18.296875 C 1.582031 18.296875 0 16.773438 0 14.296875 C 0 12.320312 0.847656 10.636719 2.234375 9.605469 C 3.222656 8.855469 4.410156 8.476562 5.78125 8.476562 C 6.828125 8.476562 7.589844 8.730469 7.859375 8.914062 L 7.378906 10.242188 C 7.066406 10.074219 6.417969 9.902344 5.582031 9.902344 C 4.679688 9.902344 3.800781 10.214844 3.152344 10.78125 C 2.316406 11.515625 1.78125 12.714844 1.78125 14.101562 C 1.78125 15.699219 2.601562 16.898438 4.480469 16.898438 C 5.171875 16.898438 5.878906 16.773438 6.386719 16.53125 L 6.542969 17.875 "/>
<path style=" stroke:none;fill-rule:nonzero;fill:rgb(92.936707%,10.914612%,14.358521%);fill-opacity:1;" d="M 11.183594 8.632812 L 10.449219 12.476562 L 14.320312 12.476562 L 15.054688 8.632812 L 16.707031 8.632812 L 14.898438 18.15625 L 13.246094 18.15625 L 14.050781 13.945312 L 10.164062 13.945312 L 9.375 18.15625 L 7.734375 18.15625 L 9.542969 8.632812 L 11.183594 8.632812 "/>
<path style=" stroke:none;fill-rule:nonzero;fill:rgb(92.936707%,10.914612%,14.358521%);fill-opacity:1;" d="M 20.316406 8.632812 L 18.507812 18.15625 L 16.851562 18.15625 L 18.660156 8.632812 L 20.316406 8.632812 "/>
<path style=" stroke:none;fill-rule:nonzero;fill:rgb(92.936707%,10.914612%,14.358521%);fill-opacity:1;" d="M 20.5 18.15625 L 22.308594 8.632812 L 24.203125 8.632812 L 25.871094 13.054688 C 26.28125 14.214844 26.523438 15.089844 26.734375 16.035156 L 26.761719 16.035156 C 26.820312 15.105469 26.929688 14.183594 27.183594 12.816406 L 27.976562 8.632812 L 29.53125 8.632812 L 27.722656 18.15625 L 26.039062 18.15625 L 24.332031 13.648438 C 23.894531 12.40625 23.652344 11.628906 23.425781 10.582031 L 23.371094 10.59375 C 23.269531 11.5 23.074219 12.671875 22.820312 14.085938 L 22.039062 18.15625 L 20.5 18.15625 "/>
<path style=" stroke:none;fill-rule:nonzero;fill:rgb(92.936707%,10.914612%,14.358521%);fill-opacity:1;" d="M 34.917969 14.171875 L 34.652344 11.796875 C 34.609375 11.289062 34.550781 10.554688 34.511719 9.988281 L 34.480469 9.988281 C 34.226562 10.554688 33.972656 11.230469 33.703125 11.796875 L 32.542969 14.171875 Z M 32.023438 15.441406 L 30.722656 18.15625 L 28.96875 18.15625 L 33.746094 8.632812 L 35.808594 8.632812 L 37.011719 18.15625 L 35.285156 18.15625 L 35.019531 15.441406 L 32.023438 15.441406 "/>
<path style=" stroke:none;fill-rule:nonzero;fill:rgb(92.936707%,10.914612%,14.358521%);fill-opacity:1;" d="M 44.152344 8.632812 L 43.09375 14.183594 C 43.023438 14.539062 42.980469 14.933594 42.980469 15.34375 C 42.992188 16.320312 43.574219 16.925781 44.546875 16.925781 C 45.722656 16.925781 46.527344 16.136719 46.894531 14.199219 L 47.953125 8.632812 L 49.609375 8.632812 L 48.546875 14.171875 C 47.996094 17.039062 46.667969 18.3125 44.335938 18.3125 C 42.542969 18.3125 41.339844 17.378906 41.339844 15.371094 C 41.339844 14.960938 41.398438 14.496094 41.46875 14.058594 L 42.5 8.632812 L 44.152344 8.632812 "/>
<path style=" stroke:none;fill-rule:nonzero;fill:rgb(92.936707%,10.914612%,14.358521%);fill-opacity:1;" d="M 49.753906 18.15625 L 51.5625 8.632812 L 53.457031 8.632812 L 55.121094 13.054688 C 55.53125 14.214844 55.773438 15.089844 55.984375 16.035156 L 56.011719 16.035156 C 56.070312 15.105469 56.183594 14.183594 56.4375 12.816406 L 57.226562 8.632812 L 58.78125 8.632812 L 56.972656 18.15625 L 55.292969 18.15625 L 53.582031 13.648438 C 53.144531 12.40625 52.902344 11.628906 52.675781 10.582031 L 52.621094 10.59375 C 52.523438 11.5 52.324219 12.671875 52.070312 14.085938 L 51.292969 18.15625 L 49.753906 18.15625 "/>
<path style=" stroke:none;fill-rule:nonzero;fill:rgb(92.936707%,10.914612%,14.358521%);fill-opacity:1;" d="M 62.390625 8.632812 L 60.582031 18.15625 L 58.925781 18.15625 L 60.738281 8.632812 L 62.390625 8.632812 "/>
<path style=" stroke:none;fill-rule:nonzero;fill:rgb(92.936707%,10.914612%,14.358521%);fill-opacity:1;" d="M 65.8125 10.074219 L 63.167969 10.074219 L 63.453125 8.632812 L 70.390625 8.632812 L 70.109375 10.074219 L 67.453125 10.074219 L 65.925781 18.15625 L 64.273438 18.15625 L 65.8125 10.074219 "/>
<path style=" stroke:none;fill-rule:nonzero;fill:rgb(92.936707%,10.914612%,14.358521%);fill-opacity:1;" d="M 75.566406 13.917969 L 72.144531 13.917969 L 71.609375 16.757812 L 75.453125 16.757812 L 75.183594 18.15625 L 69.6875 18.15625 L 71.496094 8.632812 L 76.78125 8.632812 L 76.511719 10.03125 L 72.882812 10.03125 L 72.402344 12.53125 L 75.835938 12.53125 L 75.566406 13.917969 "/>
<path style=" stroke:none;fill-rule:nonzero;fill:rgb(92.936707%,10.914612%,14.358521%);fill-opacity:1;" d="M 78.621094 16.8125 C 78.945312 16.855469 79.300781 16.871094 79.667969 16.871094 C 80.953125 16.871094 81.984375 16.460938 82.675781 15.699219 C 83.425781 14.90625 83.808594 13.773438 83.808594 12.53125 C 83.808594 10.949219 82.972656 9.890625 80.980469 9.890625 C 80.597656 9.890625 80.191406 9.917969 79.921875 9.972656 Z M 78.492188 8.773438 C 79.273438 8.632812 80.117188 8.558594 81.011719 8.558594 C 82.535156 8.558594 83.738281 8.957031 84.5 9.703125 C 85.152344 10.296875 85.589844 11.1875 85.589844 12.503906 C 85.589844 14.296875 84.855469 15.9375 83.652344 16.925781 C 82.550781 17.832031 81.152344 18.214844 79.199219 18.214844 C 78.199219 18.214844 77.265625 18.140625 76.726562 18.070312 L 78.492188 8.773438 "/>
<path style=" stroke:none;fill-rule:nonzero;fill:rgb(92.936707%,10.914612%,14.358521%);fill-opacity:1;" d="M 93.917969 14.171875 L 93.648438 11.796875 C 93.605469 11.289062 93.550781 10.554688 93.507812 9.988281 L 93.480469 9.988281 C 93.226562 10.554688 92.96875 11.230469 92.703125 11.796875 L 91.542969 14.171875 Z M 91.019531 15.441406 L 89.71875 18.15625 L 87.96875 18.15625 L 92.746094 8.632812 L 94.808594 8.632812 L 96.007812 18.15625 L 94.285156 18.15625 L 94.015625 15.441406 L 91.019531 15.441406 "/>
<path style=" stroke:none;fill-rule:nonzero;fill:rgb(92.936707%,10.914612%,14.358521%);fill-opacity:1;" d="M 100.5625 8.632812 L 98.753906 18.15625 L 97.101562 18.15625 L 98.910156 8.632812 L 100.5625 8.632812 "/>
<path style=" stroke:none;fill-rule:nonzero;fill:rgb(92.936707%,10.914612%,14.358521%);fill-opacity:1;" d="M 103.378906 12.96875 L 104.308594 12.96875 C 105.597656 12.96875 106.457031 12.179688 106.457031 11.148438 C 106.457031 10.269531 105.765625 9.875 104.832031 9.875 C 104.421875 9.875 104.152344 9.902344 103.957031 9.960938 Z M 102.542969 8.785156 C 103.152344 8.644531 104.039062 8.558594 104.890625 8.558594 C 105.808594 8.558594 106.683594 8.746094 107.277344 9.183594 C 107.8125 9.550781 108.183594 10.128906 108.183594 10.90625 C 108.183594 12.304688 107.191406 13.265625 105.976562 13.632812 L 105.964844 13.675781 C 106.585938 13.917969 106.855469 14.582031 106.9375 15.484375 C 107.050781 16.671875 107.121094 17.773438 107.277344 18.15625 L 105.582031 18.15625 C 105.511719 17.929688 105.410156 17.027344 105.328125 15.882812 C 105.257812 14.664062 104.816406 14.226562 103.941406 14.226562 L 103.136719 14.226562 L 102.386719 18.15625 L 100.761719 18.15625 L 102.542969 8.785156 "/>
<path style=" stroke:none;fill-rule:nonzero;fill:rgb(92.936707%,10.914612%,14.358521%);fill-opacity:1;" d="M 110.417969 8.632812 L 112.070312 8.632812 L 110.53125 16.714844 L 114.277344 16.714844 L 114.007812 18.15625 L 108.609375 18.15625 L 110.417969 8.632812 "/>
<path style=" stroke:none;fill-rule:nonzero;fill:rgb(92.936707%,10.914612%,14.358521%);fill-opacity:1;" d="M 118.644531 8.632812 L 116.835938 18.15625 L 115.183594 18.15625 L 116.992188 8.632812 L 118.644531 8.632812 "/>
<path style=" stroke:none;fill-rule:nonzero;fill:rgb(92.936707%,10.914612%,14.358521%);fill-opacity:1;" d="M 118.828125 18.15625 L 120.640625 8.632812 L 122.535156 8.632812 L 124.199219 13.054688 C 124.609375 14.214844 124.851562 15.089844 125.0625 16.035156 L 125.09375 16.035156 C 125.148438 15.105469 125.261719 14.183594 125.515625 12.816406 L 126.308594 8.632812 L 127.863281 8.632812 L 126.054688 18.15625 L 124.371094 18.15625 L 122.660156 13.648438 C 122.222656 12.40625 121.980469 11.628906 121.757812 10.582031 L 121.699219 10.59375 C 121.601562 11.5 121.402344 12.671875 121.148438 14.085938 L 120.371094 18.15625 L 118.828125 18.15625 "/>
<path style=" stroke:none;fill-rule:nonzero;fill:rgb(92.936707%,10.914612%,14.358521%);fill-opacity:1;" d="M 133.914062 13.917969 L 130.492188 13.917969 L 129.957031 16.757812 L 133.800781 16.757812 L 133.53125 18.15625 L 128.035156 18.15625 L 129.84375 8.632812 L 135.128906 8.632812 L 134.859375 10.03125 L 131.226562 10.03125 L 130.746094 12.53125 L 134.183594 12.53125 L 133.914062 13.917969 "/>
<path style=" stroke:none;fill-rule:nonzero;fill:rgb(92.936707%,10.914612%,14.358521%);fill-opacity:1;" d="M 135.34375 16.277344 C 135.878906 16.628906 136.65625 16.882812 137.492188 16.882812 C 138.410156 16.882812 139.257812 16.390625 139.257812 15.472656 C 139.257812 14.851562 138.847656 14.425781 137.914062 13.929688 C 136.8125 13.335938 135.980469 12.574219 135.980469 11.445312 C 135.980469 9.621094 137.5625 8.476562 139.484375 8.476562 C 140.542969 8.476562 141.238281 8.746094 141.605469 8.957031 L 141.066406 10.328125 C 140.757812 10.15625 140.121094 9.890625 139.34375 9.902344 C 138.296875 9.902344 137.703125 10.511719 137.703125 11.148438 C 137.703125 11.796875 138.242188 12.179688 139.132812 12.6875 C 140.289062 13.296875 140.980469 14.058594 140.980469 15.21875 C 140.980469 17.125 139.441406 18.296875 137.308594 18.296875 C 136.148438 18.296875 135.203125 17.972656 134.777344 17.632812 L 135.34375 16.277344 "/>
</g>
</svg>

<svg xmlns="http://www.w3.org/2000/svg" width="176pt" height="45.64" viewBox="0 0 176 34.23"><defs><clipPath id="a"><path d="M127 0h49v34.23h-49Zm0 0"/></clipPath><clipPath id="b"><path d="M153 17h18v17.23h-18Zm0 0"/></clipPath></defs><g clip-path="url(#a)"><path d="M127.105 34.23s6.985-1.046 15.368-10.828C150.852 13.625 162.379.004 162.379.004H176L165.871 34.23z" style="stroke:none;fill-rule:nonzero;fill:#ed1c25;fill-opacity:1"/></g><path d="M154.527 27.941c-.183.606-.597 1.414-1.27 2.215-1.48 1.762-3.241 1.266-4.507-1.511-1.074-2.36-1.348-4.875-.984-6.946.23-1.457.757-2.637 1.547-3.578.605-.726 1.183-1.004 1.425-1.004l.508 2.211c-.238.043-.687.29-1.168.863-.484.579-.812 1.403-.91 2.34-.145 1.282.102 2.84.77 4.309.761 1.668 1.773 2.2 2.761 1.02.39-.465.723-1.055.906-1.61zM152.746 14.285l2.145 6.79q.189.615.511 1.32c.383.843.957 1.171 1.496.527.625-.742.684-2.02-.007-4.207l-2.149-6.805 1.196-1.426 2.117 6.7c1.125 3.57 1.074 5.992-.446 7.804-1.156 1.38-2.363 1.11-3.386-1.136a14 14 0 0 1-.586-1.567l-2.086-6.574zM161.695 12.988l-1.14-2.136-1.02-1.961-.015.02c.148.808.359 1.808.488 2.593l.476 2.93Zm-.78 3.578.581 3.524-1.27 1.515-2.07-13.77 1.535-1.831 5.45 9.738-1.254 1.496-1.36-2.593z" style="stroke:none;fill-rule:nonzero;fill:#fdfeff;fill-opacity:1"/><g clip-path="url(#b)"><path d="M153.098 34.23s4.015-1.14 9.332-8.558c3.175-4.43 8.507-8.555 8.507-8.555l-.761 2.567s-3.29 1.261-7.125 6.246c-3.836 4.98-4.895 8.3-4.895 8.3" style="stroke:none;fill-rule:nonzero;fill:#fdfeff;fill-opacity:1"/></g><path d="M6.543 17.875c-.508.227-1.371.422-2.488.422-2.473 0-4.055-1.524-4.055-4 0-1.977.848-3.66 2.234-4.692.989-.75 2.176-1.128 3.547-1.128 1.047 0 1.809.253 2.078.437l-.48 1.328c-.313-.168-.961-.34-1.797-.34-.902 0-1.781.313-2.43.88-.836.734-1.37 1.933-1.37 3.32 0 1.597.82 2.796 2.698 2.796.692 0 1.399-.125 1.907-.367zM11.184 8.633l-.735 3.844h3.871l.735-3.844h1.652l-1.809 9.523h-1.652l.805-4.21h-3.887l-.789 4.21h-1.64l1.808-9.523zM20.316 8.633l-1.808 9.523h-1.656l1.808-9.523zM20.5 18.156l1.809-9.523h1.894l1.668 4.422c.41 1.16.652 2.035.863 2.98h.028c.058-.93.168-1.851.422-3.219l.793-4.183h1.554l-1.808 9.523h-1.684l-1.707-4.508c-.437-1.242-.68-2.02-.906-3.066l-.055.012c-.101.906-.297 2.078-.55 3.492l-.782 4.07zM34.918 14.172l-.266-2.375c-.043-.508-.101-1.242-.14-1.809h-.032c-.253.567-.507 1.242-.777 1.809l-1.16 2.375Zm-2.895 1.27-1.3 2.714h-1.754l4.777-9.523h2.063l1.203 9.523h-1.727l-.265-2.715zM44.152 8.633l-1.058 5.55c-.07.356-.114.75-.114 1.16.012.977.594 1.583 1.567 1.583 1.176 0 1.98-.79 2.348-2.727l1.058-5.566h1.656l-1.062 5.539c-.55 2.867-1.879 4.14-4.211 4.14-1.793 0-2.996-.933-2.996-2.94 0-.411.058-.876.129-1.313L42.5 8.633zM49.754 18.156l1.809-9.523h1.894l1.664 4.422c.41 1.16.652 2.035.863 2.98h.028c.058-.93.172-1.851.425-3.219l.79-4.183h1.554l-1.808 9.523h-1.68l-1.711-4.508c-.437-1.242-.68-2.02-.906-3.066l-.055.012c-.098.906-.297 2.078-.55 3.492l-.778 4.07zM62.39 8.633l-1.808 9.523h-1.656l1.812-9.523zM65.813 10.074h-2.645l.285-1.441h6.938l-.282 1.441h-2.656l-1.527 8.082h-1.653zM75.566 13.918h-3.421l-.536 2.84h3.844l-.27 1.398h-5.496l1.81-9.523h5.284l-.27 1.398h-3.628l-.48 2.5h3.433zM78.621 16.813c.324.042.68.058 1.047.058 1.285 0 2.316-.41 3.008-1.172.75-.793 1.133-1.926 1.133-3.168 0-1.582-.836-2.64-2.829-2.64-.382 0-.789.027-1.058.082Zm-.129-8.04a14.3 14.3 0 0 1 2.52-.214c1.523 0 2.726.398 3.488 1.144.652.594 1.09 1.485 1.09 2.8 0 1.794-.735 3.435-1.938 4.423-1.101.906-2.5 1.289-4.453 1.289-1 0-1.933-.074-2.472-.145zM93.918 14.172l-.27-2.375c-.043-.508-.097-1.242-.14-1.809h-.028c-.253.567-.511 1.242-.777 1.809l-1.16 2.375Zm-2.898 1.27-1.301 2.714h-1.75l4.777-9.523h2.063l1.199 9.523h-1.723l-.27-2.715zM100.563 8.633l-1.81 9.523h-1.651l1.808-9.523zM103.379 12.969h.93c1.289 0 2.148-.79 2.148-1.82 0-.88-.691-1.274-1.625-1.274-.41 0-.68.027-.875.086Zm-.836-4.184c.61-.14 1.496-.226 2.348-.226.918 0 1.793.187 2.386.625.535.367.907.945.907 1.722 0 1.399-.993 2.36-2.207 2.727l-.012.043c.62.242.89.906.972 1.808.114 1.188.184 2.29.34 2.672h-1.695c-.07-.226-.172-1.129-.254-2.273-.07-1.219-.512-1.656-1.387-1.656h-.804l-.75 3.93h-1.625zM110.418 8.633h1.652l-1.539 8.082h3.746l-.27 1.441h-5.398zM118.645 8.633l-1.81 9.523h-1.651l1.808-9.523zM118.828 18.156l1.813-9.523h1.894l1.664 4.422c.41 1.16.653 2.035.864 2.98h.03c.055-.93.169-1.851.423-3.219l.793-4.183h1.554l-1.808 9.523h-1.684l-1.71-4.508c-.438-1.242-.68-2.02-.903-3.066l-.059.012c-.097.906-.297 2.078-.55 3.492l-.778 4.07zM133.914 13.918h-3.422l-.535 2.84h3.844l-.27 1.398h-5.496l1.809-9.523h5.285l-.27 1.398h-3.632l-.48 2.5h3.437zM135.344 16.277c.535.352 1.312.606 2.148.606.918 0 1.766-.492 1.766-1.41 0-.621-.41-1.047-1.344-1.543-1.101-.594-1.934-1.356-1.934-2.485 0-1.824 1.583-2.968 3.504-2.968 1.059 0 1.754.27 2.121.48l-.539 1.371a3.56 3.56 0 0 0-1.722-.426c-1.047 0-1.64.61-1.64 1.246 0 .649.538 1.032 1.429 1.54 1.156.609 1.847 1.37 1.847 2.53 0 1.907-1.539 3.079-3.671 3.079-1.16 0-2.106-.324-2.532-.664z" style="stroke:none;fill-rule:nonzero;fill:#ed1c25;fill-opacity:1"/></svg>
